src/assets/diamondhands.svg

<svg width="278" height="48" viewBox="0 0 278 48" fill="none" xmlns="http://www.w3.org/2000/svg">
<path d="M86.018 16.3653C84.9924 15.535 83.8013 14.9333 82.5243 14.6004C81.0462 14.2088 79.5218 14.019 77.9927 14.0362C77.2091 14.0362 76.2688 14.07 75.1717 14.1375C74.113 14.1945 73.0586 14.3152 72.0144 14.4992V33.4431C73.0333 33.6496 74.0653 33.785 75.103 33.8482C76.1482 33.9133 77.0668 33.9458 77.8517 33.9458C79.4258 33.9651 80.9946 33.758 82.5099 33.331C83.8008 32.9673 85.001 32.3365 86.0325 31.4793C87.0124 30.6312 87.7772 29.5628 88.264 28.3617C88.8155 26.9601 89.0823 25.4626 89.0488 23.9567C89.0879 22.4139 88.8212 20.8786 88.264 19.4395C87.7781 18.2465 87.0069 17.1909 86.018 16.3653V16.3653ZM82.9294 28.5462C81.8734 29.6481 80.2507 30.2002 78.0614 30.2026C77.6998 30.2026 77.3634 30.2026 77.0958 30.2026C76.8281 30.2026 76.5858 30.1773 76.3724 30.1592V17.8446C76.6699 17.8045 76.9693 17.7803 77.2694 17.7722C77.5876 17.7722 77.8951 17.7722 78.1952 17.7722C80.3845 17.7722 81.9843 18.2966 82.9945 19.3455C84.0048 20.3943 84.5099 21.9374 84.5099 23.9748C84.5243 25.9157 83.9975 27.4395 82.9294 28.5462Z" fill="white"/>
<path d="M96.5968 18.9475H92.416V33.707H96.5968V18.9475Z" fill="white"/>
<path d="M96.246 12.8716C95.7603 12.4471 95.1371 12.2131 94.492 12.2131C93.8468 12.2131 93.2236 12.4471 92.7379 12.8716C92.2634 13.3539 91.9976 14.0034 91.9976 14.6799C91.9976 15.3565 92.2634 16.006 92.7379 16.4883C93.2226 16.915 93.8462 17.1503 94.492 17.1503C95.1377 17.1503 95.7613 16.915 96.246 16.4883C96.7222 16.0069 96.9893 15.3571 96.9893 14.6799C96.9893 14.0028 96.7222 13.353 96.246 12.8716Z" fill="white"/>
<path d="M110.897 20.1845C110.344 19.6268 109.664 19.2122 108.915 18.9766C107.916 18.6703 106.874 18.5286 105.83 18.557C105.342 18.557 104.861 18.5787 104.383 18.6257C103.906 18.6728 103.454 18.727 103.024 18.7957C102.593 18.8645 102.195 18.9332 101.83 19.02C101.465 19.1068 101.161 19.1827 100.919 19.2587L101.454 22.6257C102.04 22.4181 102.646 22.2714 103.262 22.1881C103.959 22.0864 104.663 22.0357 105.367 22.0362C106.433 22.0362 107.182 22.2508 107.613 22.68C107.831 22.9069 108.001 23.176 108.112 23.4708C108.222 23.7655 108.272 24.0798 108.257 24.3943V24.7849C107.921 24.6985 107.579 24.638 107.233 24.6041C106.753 24.5533 106.27 24.5292 105.787 24.5317C105.004 24.5296 104.223 24.6096 103.458 24.7704C102.755 24.9113 102.082 25.1731 101.468 25.5444C100.888 25.8996 100.409 26.3977 100.076 26.991C99.7138 27.6634 99.5354 28.4194 99.5589 29.1827C99.5347 29.964 99.688 30.7405 100.007 31.454C100.297 32.0598 100.743 32.5778 101.298 32.9549C101.905 33.3488 102.581 33.6215 103.291 33.7578C104.144 33.9349 105.013 34.0197 105.884 34.0109C107.181 34.0262 108.476 33.9367 109.758 33.7433C110.826 33.5649 111.659 33.4106 112.257 33.2804V24.5896C112.266 23.7464 112.161 22.9058 111.946 22.0905C111.76 21.3779 111.4 20.7228 110.897 20.1845V20.1845ZM108.242 30.6728C107.945 30.7165 107.646 30.7443 107.345 30.756C106.984 30.756 106.579 30.7849 106.166 30.7849C105.543 30.8226 104.92 30.698 104.358 30.4232C104.133 30.2797 103.952 30.0767 103.835 29.8367C103.719 29.5967 103.67 29.329 103.696 29.0634C103.685 28.7664 103.763 28.4729 103.921 28.2207C104.078 27.9924 104.291 27.8082 104.539 27.6854C104.826 27.5479 105.134 27.4587 105.45 27.4214C105.818 27.3724 106.189 27.3482 106.561 27.3491C106.87 27.3503 107.179 27.3696 107.487 27.4069C107.74 27.4298 107.993 27.4672 108.242 27.5191V30.6728Z" fill="white"/>
<path d="M135.266 20.4918C134.798 19.8759 134.173 19.3964 133.457 19.103C132.536 18.746 131.552 18.5788 130.564 18.6111C129.834 18.6231 129.11 18.745 128.416 18.9728C127.679 19.196 126.983 19.5367 126.354 19.9818C125.863 19.5728 125.309 19.2466 124.712 19.0162C123.881 18.7164 122.999 18.5777 122.116 18.6075C121.573 18.6075 121.031 18.6328 120.459 18.6798C119.888 18.7268 119.353 18.7919 118.821 18.8751C118.289 18.9583 117.783 19.0523 117.306 19.1536C116.828 19.2549 116.412 19.3561 116.054 19.4502V33.7069H120.235V22.3145C120.5 22.2784 120.771 22.2458 121.049 22.2169C121.319 22.1897 121.591 22.1765 121.863 22.1771C122.706 22.1771 123.301 22.4568 123.646 23.0162C124.007 23.5804 124.166 24.5315 124.166 25.8805V33.7106H128.347V25.6563C128.347 25.1138 128.329 24.6039 128.289 24.1265C128.256 23.6639 128.171 23.2066 128.036 22.763C128.631 22.4256 129.293 22.2254 129.975 22.1771C130.816 22.1771 131.41 22.4568 131.758 23.0162C132.101 23.5804 132.275 24.5315 132.275 25.8805V33.7106H136.456V25.3923C136.465 24.4699 136.38 23.5489 136.202 22.6437C136.059 21.8643 135.738 21.1282 135.266 20.4918V20.4918Z" fill="white"/>
<path d="M152.007 20.6872C151.363 20.0086 150.583 19.4737 149.718 19.1175C147.844 18.37 145.755 18.37 143.881 19.1175C143.014 19.4772 142.231 20.0115 141.581 20.6872C140.918 21.3921 140.403 22.2221 140.065 23.1284C139.69 24.1431 139.505 25.2183 139.519 26.3002C139.506 27.3854 139.686 28.4642 140.051 29.4864C140.377 30.4003 140.883 31.24 141.537 31.9566C142.178 32.6429 142.958 33.1832 143.827 33.5407C144.768 33.932 145.78 34.1288 146.799 34.1193C147.824 34.1342 148.841 33.9436 149.79 33.5588C150.657 33.2003 151.436 32.6602 152.076 31.9747C152.725 31.2609 153.218 30.4196 153.523 29.5045C153.868 28.4783 154.038 27.4011 154.025 26.3183C154.039 25.2377 153.859 24.1635 153.494 23.1465C153.168 22.2355 152.662 21.3993 152.007 20.6872ZM148.991 29.3671C148.752 29.7298 148.423 30.0248 148.037 30.2237C147.65 30.4226 147.219 30.5187 146.785 30.5027C146.349 30.5206 145.916 30.4254 145.527 30.2264C145.139 30.0275 144.808 29.7314 144.568 29.3671C144.002 28.4452 143.728 27.3734 143.783 26.2929C143.783 25.0018 144.047 23.9892 144.568 23.2477C144.814 22.891 145.146 22.6024 145.534 22.4088C145.922 22.2153 146.352 22.1232 146.785 22.1411C147.217 22.122 147.646 22.2136 148.032 22.4073C148.418 22.601 148.748 22.8904 148.991 23.2477C149.505 23.9711 149.761 25.0018 149.761 26.2929C149.761 27.5841 149.519 28.6148 149.006 29.3743L148.991 29.3671Z" fill="white"/>
<path d="M168.662 20.4919C168.135 19.8645 167.453 19.3857 166.684 19.1031C165.68 18.7463 164.62 18.5795 163.555 18.6112C162.371 18.6078 161.188 18.6973 160.018 18.8788C159.091 19.0145 158.173 19.2066 157.27 19.4539V33.7107H161.45V22.3147C161.711 22.2785 162.011 22.246 162.347 22.217C162.684 22.1881 163.002 22.1772 163.302 22.1772C164.275 22.1772 164.937 22.4557 165.295 23.0163C165.653 23.5769 165.826 24.5316 165.826 25.8807V33.7107H170.007V25.3924C170.018 24.4671 169.914 23.544 169.7 22.6438C169.517 21.8585 169.163 21.1235 168.662 20.4919V20.4919Z" fill="white"/>
<path d="M182.637 19.291C182.187 19.0955 181.723 18.9359 181.248 18.8136C180.737 18.6965 180.213 18.6406 179.689 18.6473C178.732 18.6295 177.781 18.8106 176.897 19.1789C176.098 19.5251 175.392 20.0541 174.836 20.7232C174.246 21.4479 173.807 22.2827 173.544 23.1789C173.231 24.2348 173.079 25.3324 173.096 26.4339C173.079 27.5182 173.254 28.5969 173.613 29.6201C173.933 30.5232 174.445 31.3461 175.114 32.0324C175.796 32.7151 176.621 33.2377 177.53 33.5623C178.574 33.9337 179.677 34.1149 180.785 34.0975C181.288 34.0975 181.816 34.0722 182.369 34.0252C182.922 33.9782 183.454 33.9167 183.997 33.8444C184.539 33.772 185.038 33.678 185.526 33.5767C186.015 33.4755 186.441 33.367 186.817 33.2549V11.9529L182.637 12.6292V19.291ZM182.637 30.376C182.377 30.4225 182.115 30.455 181.852 30.4737C181.534 30.5026 181.186 30.5171 180.81 30.5171C180.317 30.5482 179.823 30.4569 179.373 30.2512C178.923 30.0455 178.531 29.7318 178.232 29.3381C177.611 28.422 177.305 27.3291 177.36 26.2241C177.36 23.5309 178.352 22.1843 180.336 22.1843C180.767 22.1842 181.197 22.2401 181.613 22.3507C181.973 22.4389 182.318 22.5803 182.637 22.7702V30.376Z" fill="white"/>
<path d="M209.494 21.6999H202.141V14.2605H197.761V33.7072H202.141V25.4576H209.494V33.7072H213.87V14.2605H209.494V21.6999Z" fill="white"/>
<path d="M228.448 20.1845C227.896 19.6268 227.216 19.2122 226.467 18.9766C225.468 18.6703 224.426 18.5286 223.382 18.557C222.893 18.557 222.412 18.5787 221.935 18.6257C221.458 18.6728 221.005 18.727 220.575 18.7957C220.145 18.8645 219.747 18.9332 219.382 19.02C219.016 19.1068 218.713 19.1827 218.47 19.2587L219.002 22.6257C219.588 22.4188 220.194 22.2722 220.81 22.1881C221.507 22.0864 222.211 22.0357 222.915 22.0362C223.983 22.0362 224.732 22.2508 225.161 22.68C225.379 22.9069 225.549 23.176 225.66 23.4708C225.77 23.7655 225.82 24.0798 225.805 24.3943V24.7849C225.469 24.6985 225.127 24.638 224.781 24.6041C224.301 24.5533 223.818 24.5292 223.335 24.5317C222.552 24.5296 221.771 24.6096 221.005 24.7704C220.302 24.9119 219.628 25.1737 219.013 25.5444C218.435 25.9013 217.957 26.3991 217.624 26.991C217.265 27.658 217.086 28.4074 217.107 29.1646C217.083 29.9459 217.236 30.7225 217.555 31.4359C217.845 32.0417 218.291 32.5597 218.846 32.9368C219.455 33.3414 220.137 33.6227 220.854 33.765C221.706 33.9421 222.576 34.027 223.447 34.0181C224.743 34.0334 226.038 33.9439 227.32 33.7505C228.386 33.5721 229.219 33.4178 229.819 33.2876V24.5896C229.828 23.7464 229.723 22.9058 229.508 22.0905C229.319 21.3768 228.955 20.7216 228.448 20.1845ZM225.794 30.6728C225.497 30.7165 225.197 30.7443 224.897 30.756C224.535 30.756 224.13 30.7849 223.718 30.7849C223.094 30.8226 222.471 30.698 221.91 30.4232C221.685 30.2797 221.504 30.0767 221.387 29.8367C221.27 29.5967 221.222 29.329 221.248 29.0634C221.237 28.7664 221.315 28.4729 221.472 28.2207C221.629 27.9924 221.842 27.8082 222.09 27.6854C222.378 27.5479 222.686 27.4587 223.002 27.4214C223.37 27.3724 223.741 27.3482 224.112 27.3491C224.422 27.3503 224.731 27.3696 225.038 27.4069C225.292 27.4298 225.544 27.4672 225.794 27.5191V30.6728Z" fill="white"/>
<path d="M244.987 20.4919C244.462 19.8624 243.78 19.3832 243.009 19.1031C242.006 18.7461 240.945 18.5793 239.881 18.6113C238.698 18.608 237.516 18.6975 236.347 18.8789C235.419 19.0146 234.5 19.2067 233.595 19.454V33.7107H237.776V22.3147C238.041 22.2785 238.341 22.246 238.676 22.2171C239.013 22.1881 239.331 22.1773 239.628 22.1773C240.592 22.1773 241.256 22.457 241.62 23.0163C241.982 23.5805 242.156 24.5317 242.156 25.8807V33.7107H246.336V25.3925C246.345 24.4672 246.242 23.5443 246.029 22.6438C245.847 21.8578 245.491 21.1225 244.987 20.4919V20.4919Z" fill="white"/>
<path d="M258.966 19.291C258.515 19.095 258.049 18.9353 257.573 18.8136C257.063 18.6963 256.541 18.6404 256.018 18.6473C255.061 18.6295 254.11 18.8106 253.226 19.1789C252.427 19.5259 251.72 20.0547 251.161 20.7232C250.573 21.448 250.135 22.2829 249.873 23.1789C249.558 24.2347 249.406 25.3322 249.421 26.4339C249.405 27.5184 249.582 28.5971 249.942 29.6201C250.262 30.5232 250.774 31.3461 251.443 32.0324C252.124 32.7142 252.948 33.2367 253.855 33.5623C254.9 33.933 256.002 34.1143 257.11 34.0975C257.617 34.0975 258.145 34.0722 258.698 34.0252C259.251 33.9782 259.783 33.9167 260.325 33.8444C260.868 33.772 261.367 33.678 261.855 33.5767C262.343 33.4755 262.77 33.367 263.146 33.2549V11.9529L258.966 12.6292V19.291ZM258.966 30.376C258.705 30.4227 258.441 30.4552 258.177 30.4737C257.859 30.5026 257.515 30.5171 257.139 30.5171C256.645 30.5479 256.151 30.4564 255.7 30.2508C255.25 30.0451 254.857 29.7316 254.557 29.3381C253.939 28.4209 253.635 27.3285 253.689 26.2241C253.689 23.5309 254.68 22.1843 256.662 22.1843C257.093 22.1837 257.522 22.2397 257.938 22.3507C258.3 22.4383 258.646 22.5797 258.966 22.7702V30.376Z" fill="white"/>
<path d="M277.36 28.0542C277.216 27.5816 276.969 27.1469 276.637 26.7811C276.227 26.3436 275.748 25.977 275.219 25.6961C274.486 25.3067 273.726 24.9707 272.944 24.6907C272.567 24.5547 272.198 24.399 271.837 24.2241C271.597 24.113 271.367 23.9811 271.15 23.8299C271.004 23.7382 270.887 23.6064 270.814 23.4502C270.753 23.3085 270.724 23.1557 270.727 23.0017C270.727 22.2784 271.383 21.9167 272.694 21.9167C273.34 21.9102 273.984 21.9757 274.615 22.112C275.152 22.2338 275.682 22.3834 276.203 22.5605L276.926 19.3055C276.287 19.0789 275.63 18.906 274.962 18.7883C274.111 18.6266 273.246 18.5466 272.38 18.5496C270.586 18.5496 269.174 18.9511 268.145 19.754C267.643 20.1376 267.241 20.6362 266.972 21.2077C266.704 21.7791 266.576 22.4068 266.6 23.0379C266.586 23.6548 266.69 24.2688 266.908 24.8462C267.101 25.3412 267.397 25.7898 267.776 26.1627C268.176 26.5468 268.635 26.8643 269.136 27.103C269.717 27.3867 270.312 27.6402 270.919 27.8625C271.569 28.0912 272.199 28.3768 272.799 28.716C272.97 28.7973 273.117 28.9218 273.225 29.0772C273.333 29.2327 273.398 29.4136 273.414 29.6021C273.433 29.7783 273.398 29.956 273.312 30.1112C273.227 30.2665 273.096 30.3918 272.937 30.4701C272.415 30.6532 271.861 30.7295 271.309 30.6943C270.564 30.6925 269.821 30.6125 269.092 30.4556C268.351 30.2986 267.626 30.0784 266.922 29.7974L266.221 33.1934C267.833 33.8228 269.554 34.1276 271.284 34.0903C273.285 34.0903 274.833 33.7178 275.928 32.9728C276.463 32.6101 276.896 32.1151 277.184 31.5359C277.471 30.9567 277.604 30.313 277.57 29.6672C277.576 29.1223 277.506 28.5792 277.36 28.0542V28.0542Z" fill="white"/>
<path d="M13.2477 32.4955L18.123 37.4141L28.7016 48L57.8987 18.8463L39.0561 0H19.0597L0 18.8427L8.74503 27.9421L13.2477 32.4955ZM38.4087 1.56963L55.6854 18.8499L28.9222 45.613L25.3056 41.9964L36.0976 31.2007L34.8463 29.9566L23.8517 40.9331L20.2351 37.3165L31.2333 26.3183L30.0325 25.1284L19.0669 36.1013L15.5479 32.6076L26.5099 21.6347L25.425 20.4738L14.4557 31.4213L10.9584 27.9421L23.2297 15.6167L29.4575 21.8445L31.2658 18.0434L35.5515 20.9946L35.5949 21.0307L43.5769 26.1628H43.7215L29.0633 5.18627L27.3816 8.70887L20.2387 1.56963H38.4087ZM26.6799 10.1881L27.9023 11.4105L28.5714 9.88789L29.3201 8.18807L35.5298 16.8463L37.2658 19.2658L38.821 21.4358L36.6148 19.9132L30.5787 15.7468L29.0018 19.2188L28.9693 19.2948L24.1447 14.3725L23.2875 13.5045L22.7016 14.0832L9.87342 26.8282L2.18806 18.8716L15.2984 5.76132L16.264 4.8029L17.9457 3.12116L18.792 2.29296L26.6799 10.1881Z" fill="black"/>
<path d="M37.2658 19.2769L35.5298 16.8573L29.3201 8.19912L28.5714 9.89894L27.9024 11.4107L26.6799 10.1883L18.7921 2.30762L17.9458 3.12136L16.264 4.8031L15.2984 5.76151L2.19531 18.8646L9.88428 26.8284L22.7053 14.0906L23.2875 13.512L24.1483 14.3727L28.9693 19.3058L29.0054 19.2262L30.5787 15.7579L36.6185 19.9243L38.821 21.4469L37.2658 19.2769Z" fill="#6300FF"/>
<path d="M38.4124 1.56592H20.2388L27.3853 8.71239L29.0634 5.18979L43.7216 26.1554H43.5806L35.595 21.027L35.5516 20.9909L35.548 20.9945L31.2804 18.0433L29.454 21.8444L23.2261 15.6129L10.9585 27.9384L14.4594 31.4212L25.407 20.4737L26.5245 21.631L15.548 32.6075L19.067 36.1012L30.0435 25.1247L31.2442 26.3146L20.246 37.3091L23.8518 40.9294L34.85 29.9312L36.1014 31.1789L25.3093 41.9746L28.9296 45.6021L55.6891 18.8462L38.4124 1.56592Z" fill="#F79413"/>
</svg>

<svg xmlns="http://www.w3.org/2000/svg" width="278" height="48" fill="none" viewBox="0 0 278 48"><path fill="#fff" d="M86.018 16.365a9.3 9.3 0 0 0-3.494-1.765 17 17 0 0 0-4.531-.564q-1.176 0-2.821.101a26 26 0 0 0-3.158.362v18.944q1.531.31 3.089.405 1.57.098 2.749.098c1.574.02 3.143-.188 4.658-.615a9.6 9.6 0 0 0 3.522-1.852 8.2 8.2 0 0 0 2.232-3.117c.552-1.402.818-2.9.785-4.405a11.7 11.7 0 0 0-.785-4.518 7.9 7.9 0 0 0-2.246-3.074m-3.089 12.181q-1.583 1.653-4.868 1.657h-.965c-.268 0-.51-.026-.724-.044V17.845q.447-.06.897-.073h.926q3.285 0 4.8 1.574 1.515 1.572 1.515 4.629.02 2.91-1.58 4.571m13.667-9.598h-4.181v14.759h4.18zm-.351-6.076a2.665 2.665 0 0 0-3.508 0 2.58 2.58 0 0 0 0 3.616 2.654 2.654 0 0 0 3.508 0 2.57 2.57 0 0 0 0-3.616m14.651 7.313a4.8 4.8 0 0 0-1.982-1.208 9.6 9.6 0 0 0-3.085-.42q-.731 0-1.447.069-.715.069-1.359.17a17 17 0 0 0-1.194.224c-.365.087-.669.163-.911.239l.535 3.367a9 9 0 0 1 1.808-.438 14.5 14.5 0 0 1 2.105-.152q1.6 0 2.246.644a2.32 2.32 0 0 1 .644 1.714v.39a7 7 0 0 0-1.024-.18q-.72-.076-1.446-.072a11.2 11.2 0 0 0-2.329.238 6.2 6.2 0 0 0-1.99.774 4 4 0 0 0-1.392 1.447 4.34 4.34 0 0 0-.517 2.192 5.2 5.2 0 0 0 .448 2.271c.29.606.736 1.124 1.291 1.5a5.6 5.6 0 0 0 1.993.804 12 12 0 0 0 2.593.253 24 24 0 0 0 3.874-.268 55 55 0 0 0 2.499-.463v-8.69a9.4 9.4 0 0 0-.311-2.5 4.4 4.4 0 0 0-1.049-1.905m-2.655 10.488a8 8 0 0 1-.897.083c-.361 0-.766.029-1.179.029a3.6 3.6 0 0 1-1.808-.362 1.45 1.45 0 0 1-.662-1.36 1.5 1.5 0 0 1 .225-.842c.157-.229.37-.413.618-.536.287-.137.595-.226.911-.264a8 8 0 0 1 2.037-.014q.38.034.755.112zm27.024-10.181a4.34 4.34 0 0 0-1.809-1.389 7.3 7.3 0 0 0-2.893-.492 7.3 7.3 0 0 0-2.148.362 7.2 7.2 0 0 0-2.062 1.009 5.9 5.9 0 0 0-1.642-.966 7 7 0 0 0-2.596-.408 22.4 22.4 0 0 0-3.295.268 29 29 0 0 0-2.767.574v14.257h4.181V22.314q.397-.054.814-.097.405-.04.814-.04 1.265 0 1.783.84c.361.563.52 1.515.52 2.864v7.83h4.181v-8.055q.001-.813-.058-1.53a6.2 6.2 0 0 0-.253-1.363 4.6 4.6 0 0 1 1.939-.586q1.261 0 1.783.84.516.843.517 2.864v7.83h4.181v-8.319a13.6 13.6 0 0 0-.254-2.748 5.2 5.2 0 0 0-.936-2.152m16.741.195a6.6 6.6 0 0 0-2.289-1.57 7.88 7.88 0 0 0-5.837 0 6.8 6.8 0 0 0-2.3 1.57 7.3 7.3 0 0 0-1.516 2.441 8.8 8.8 0 0 0-.546 3.172 9.2 9.2 0 0 0 .532 3.186 7.3 7.3 0 0 0 1.486 2.47 6.5 6.5 0 0 0 2.29 1.585 7.6 7.6 0 0 0 2.972.578 7.7 7.7 0 0 0 2.991-.56 6.55 6.55 0 0 0 2.286-1.584 6.9 6.9 0 0 0 1.447-2.47 9.6 9.6 0 0 0 .502-3.187 9 9 0 0 0-.531-3.172 7.2 7.2 0 0 0-1.487-2.459m-3.016 8.68a2.53 2.53 0 0 1-2.206 1.136 2.53 2.53 0 0 1-2.217-1.136 5.36 5.36 0 0 1-.785-3.074q.002-1.935.785-3.045a2.56 2.56 0 0 1 2.217-1.107 2.53 2.53 0 0 1 2.206 1.107c.514.723.77 1.754.77 3.045s-.242 2.322-.755 3.081zm19.671-8.875a4.7 4.7 0 0 0-1.978-1.389 8.6 8.6 0 0 0-3.129-.492 23 23 0 0 0-3.537.268q-1.392.204-2.748.575V33.71h4.18V22.315q.392-.055.897-.098.505-.042.955-.04 1.458 0 1.993.84c.358.56.531 1.515.531 2.864v7.83h4.181v-8.319a11.3 11.3 0 0 0-.307-2.748 5.45 5.45 0 0 0-1.038-2.152m13.975-1.201a9 9 0 0 0-1.389-.477 6.6 6.6 0 0 0-1.559-.167 6.9 6.9 0 0 0-2.792.532 5.55 5.55 0 0 0-2.061 1.544 7 7 0 0 0-1.292 2.456 10.9 10.9 0 0 0-.448 3.255 9.2 9.2 0 0 0 .517 3.186c.32.903.832 1.726 1.501 2.412a6.5 6.5 0 0 0 2.416 1.53 9.3 9.3 0 0 0 3.255.535q.754 0 1.584-.072a34 34 0 0 0 1.628-.18 21 21 0 0 0 1.529-.268c.489-.102.915-.21 1.291-.322V11.953l-4.18.676zm0 11.085q-.39.07-.785.098-.477.043-1.042.043a3 3 0 0 1-2.578-1.179 5.1 5.1 0 0 1-.872-3.114q0-4.04 2.976-4.04c.431 0 .861.056 1.277.167.36.088.705.23 1.024.42zm26.857-8.676h-7.353v-7.44h-4.38v19.447h4.38v-8.25h7.353v8.25h4.376V14.261h-4.376zm18.954-1.515a4.8 4.8 0 0 0-1.981-1.208 9.6 9.6 0 0 0-3.085-.42q-.733 0-1.447.069t-1.36.17c-.43.069-.828.137-1.193.224s-.669.163-.912.239l.532 3.367a9 9 0 0 1 1.808-.438 14.5 14.5 0 0 1 2.105-.152q1.602 0 2.246.644a2.32 2.32 0 0 1 .644 1.714v.39a7 7 0 0 0-1.024-.18q-.72-.076-1.446-.072a11.2 11.2 0 0 0-2.33.238 6.3 6.3 0 0 0-1.992.774 4 4 0 0 0-1.389 1.447 4.33 4.33 0 0 0-.517 2.174 5.2 5.2 0 0 0 .448 2.27c.29.607.736 1.125 1.291 1.502a5.6 5.6 0 0 0 2.008.828c.852.177 1.722.262 2.593.253a24 24 0 0 0 3.873-.267 56 56 0 0 0 2.499-.463V24.59a9.4 9.4 0 0 0-.311-2.5 4.4 4.4 0 0 0-1.06-1.905m-2.654 10.488a8 8 0 0 1-.897.083c-.362 0-.767.029-1.179.029a3.6 3.6 0 0 1-1.808-.362 1.45 1.45 0 0 1-.662-1.36 1.5 1.5 0 0 1 .224-.842c.157-.229.37-.413.618-.536a3 3 0 0 1 .912-.264 8 8 0 0 1 2.036-.014q.381.034.756.112zm19.193-10.181a4.64 4.64 0 0 0-1.978-1.389 8.6 8.6 0 0 0-3.128-.492 22.6 22.6 0 0 0-3.534.268q-1.393.204-2.752.575v14.257h4.181V22.315q.397-.055.9-.098.506-.042.952-.04 1.446 0 1.992.84c.362.564.536 1.515.536 2.864v7.83h4.18v-8.318a11.5 11.5 0 0 0-.307-2.75 5.4 5.4 0 0 0-1.042-2.151m13.979-1.201a9 9 0 0 0-1.393-.477 6.6 6.6 0 0 0-1.555-.167 6.9 6.9 0 0 0-2.792.532 5.6 5.6 0 0 0-2.065 1.544 7 7 0 0 0-1.288 2.456 10.9 10.9 0 0 0-.452 3.255 9.2 9.2 0 0 0 .521 3.186c.32.903.832 1.726 1.501 2.412a6.5 6.5 0 0 0 2.412 1.53 9.3 9.3 0 0 0 3.255.535q.76 0 1.588-.072a34 34 0 0 0 1.627-.18 21 21 0 0 0 1.53-.268c.488-.102.915-.21 1.291-.322V11.953l-4.18.676zm0 11.085q-.392.07-.789.098-.476.043-1.038.043a3.02 3.02 0 0 1-2.582-1.179 5.12 5.12 0 0 1-.868-3.114q0-4.04 2.973-4.04c.431 0 .86.056 1.276.167.362.087.708.229 1.028.42zm18.394-2.322a3.35 3.35 0 0 0-.723-1.273 5.4 5.4 0 0 0-1.418-1.085 17 17 0 0 0-2.275-1.005 12 12 0 0 1-1.107-.467 4.5 4.5 0 0 1-.687-.394.9.9 0 0 1-.336-.38 1.1 1.1 0 0 1-.087-.448q0-1.085 1.967-1.085a8.7 8.7 0 0 1 1.921.195q.806.183 1.588.449l.723-3.256q-.96-.34-1.964-.517a13.6 13.6 0 0 0-2.582-.238q-2.691 0-4.235 1.204a3.94 3.94 0 0 0-1.545 3.284 4.8 4.8 0 0 0 .308 1.808c.193.495.489.944.868 1.317.4.384.859.701 1.36.94q.872.426 1.783.76c.65.228 1.28.514 1.88.853a1.09 1.09 0 0 1 .615.886.86.86 0 0 1-.477.868 4.1 4.1 0 0 1-1.628.224 10.7 10.7 0 0 1-2.217-.238 13.3 13.3 0 0 1-2.17-.659l-.701 3.396c1.612.63 3.333.935 5.063.897q3.001 0 4.644-1.117a3.76 3.76 0 0 0 1.642-3.306 5.8 5.8 0 0 0-.21-1.613"/><path fill="#000" d="m13.248 32.496 4.875 4.918L28.702 48l29.197-29.154L39.056 0H19.06L0 18.843l8.745 9.1zM38.408 1.57l17.277 17.28-26.763 26.763-3.616-3.617 10.792-10.795-1.252-1.244-10.994 10.976-3.617-3.617 10.998-10.998-1.2-1.19-10.966 10.973-3.52-3.493L26.51 21.635l-1.085-1.161-10.97 10.947-3.497-3.479L23.23 15.617l6.227 6.227 1.809-3.8 4.285 2.95.044.037 7.982 5.132h.145L29.063 5.186 27.382 8.71l-7.143-7.14zM26.68 10.188l1.222 1.223.67-1.523.748-1.7 6.21 8.658 1.736 2.42 1.555 2.17-2.206-1.523-6.036-4.166-1.577 3.472-.033.076-4.824-4.923-.857-.867-.586.578L9.873 26.828l-7.685-7.956 13.11-13.11.966-.96 1.682-1.68.846-.829z"/><path fill="#6300ff" d="m37.266 19.277-1.736-2.42L29.32 8.2l-.749 1.7-.669 1.512-1.222-1.223-7.888-7.88-.846.813-1.682 1.682-.966.959L2.195 18.865l7.69 7.963 12.82-12.737.583-.579.86.86 4.821 4.934.036-.08 1.574-3.468 6.04 4.166 2.202 1.523z"/><path fill="#f79413" d="M38.412 1.566H20.24l7.146 7.146 1.678-3.522 14.659 20.965h-.141l-7.986-5.128-.043-.036-.004.003-4.268-2.95-1.826 3.8-6.228-6.231L10.96 27.938l3.5 3.483 10.948-10.947 1.117 1.157-10.976 10.977 3.519 3.493 10.977-10.976 1.2 1.19-10.998 10.994 3.606 3.62L34.85 29.931l1.251 1.248L25.31 41.975l3.62 3.627 26.76-26.756z"/></svg>
